X: 45
T: No_3_Dance_Faster.krn
N: Derived from No_3_Dance_Faster.krn
%%abc-version 2.0
%%abcx-abcm2ps-target-version 5.9.1 (29 Sep 2008)
%%abc-creator hum2abc beta
%%abcx-conversion-date 2019/03/15 08:36:49
%%humdrum-veritas 2456904021
%%humdrum-veritas-data 2590721780
%%linebreak <none>
%%barnumbers 0
L: 1/8
M: 2/4
K: C clef=bass
[K:clef=bass][M:2/4]C4 | 
C2G,3/G,/ | 
C3/G,/ C3/C/ ||  
[M:3/4](3F,E,E,!fermata!F,2F,/E,/C,/C,/ ||  
[M:2/4]E,/E,3/ C,C, | 
C4 | 
C2G, z | 
C/C3/ C3/C/ ||  
[M:3/4](3F,E,E,!fermata!F,2F,/E,/C,/C,/ | 
E,/E,3/ C,3/C,/C,2 | 
C,/C,3/ C,3/C,/C,2 ||  
[M:2/4]C,2C,/C,3/ | 
C,3/C,/C,2 | 
E,/E,3/ C,3/C,/ | 
E,/E,3/ C,3/C,/ | 
E,2E,C,/C,/ | 
C,2C,C, | 
E,/E,3/ C,3/C,/ | 
E,/E,3/ C,3/C,/ | 
E,2E,C,/C,/ | 
C,2C,C, | 
F,2F,/E,/C,/C,/ | 
E,2C,3/C,/ | 
E,2E,C,/C,/ | 
C,2C,C, | 
G,,2C,C, | 
C,2C,C, | 
G,,2C,C, | 
C,2C,2 |]  



